dist/svgs/unicons/line/shopping-cart.svg

<svg id="Layer_1" data-name="Layer 1" xmlns="http://www.w3.org/2000/svg" viewBox="0 0 24 24"><path d="M8.5,19A1.5,1.5,0,1,0,10,20.5,1.5,1.5,0,0,0,8.5,19ZM19,16H7a1,1,0,0,1,0-2h8.49121A3.0132,3.0132,0,0,0,18.376,11.82422L19.96143,6.2749A1.00009,1.00009,0,0,0,19,5H6.73907A3.00666,3.00666,0,0,0,3.92139,3H3A1,1,0,0,0,3,5h.92139a1.00459,1.00459,0,0,1,.96142.7251l.15552.54474.00024.00506L6.6792,12.01709A3.00006,3.00006,0,0,0,7,18H19a1,1,0,0,0,0-2ZM17.67432,7l-1.2212,4.27441A1.00458,1.00458,0,0,1,15.49121,12H8.75439l-.25494-.89221L7.32642,7ZM16.5,19A1.5,1.5,0,1,0,18,20.5,1.5,1.5,0,0,0,16.5,19Z"/></svg>

<svg xmlns="http://www.w3.org/2000/svg" data-name="Layer 1" viewBox="0 0 24 24"><path d="M8.5 19a1.5 1.5 0 101.5 1.5A1.5 1.5 0 008.5 19zM19 16H7a1 1 0 010-2h8.491a3.013 3.013 0 002.885-2.176l1.585-5.55A1 1 0 0019 5H6.74a3.007 3.007 0 00-2.82-2H3a1 1 0 000 2h.921a1.005 1.005 0 01.962.725l.155.545v.005l1.641 5.742A3 3 0 007 18h12a1 1 0 000-2zm-1.326-9l-1.22 4.274a1.005 1.005 0 01-.963.726H8.754l-.255-.892L7.326 7zM16.5 19a1.5 1.5 0 101.5 1.5 1.5 1.5 0 00-1.5-1.5z"/></svg>
